X:432
T:Reel 432
M:4/4
K:Dmaj
L:1/8
A|F2DF A2GF|EA,A,B, CDEG|FDDF A2GF|GABd cAGE|FDDF A2GF|EA,A,B, CDEG|FDDF A2GF|GABc E2|A2|dcAB c2cA|cdBc AcBc|d2dB c2cA|Bdce d2dc|dAAc B2GF|GFED CDEC|DEFG ABAF|cAGE FDD|A|dcBd cAAc|dAdB cAAc|dcdB cdec|fdBc d2c2|dcBd cAAc|dABc d2Bc|dfec dBcA|Bdce d2A|
